src/assets/images/jike.svg

<svg fill="none" height="54" viewBox="0 0 54 54" width="54" xmlns="http://www.w3.org/2000/svg"><path d="m24.83 9.01019c-.0057-.55624.4437-1.01019.9999-1.01019h8.1361c.5523 0 1 .44772 1 1v15.9704c0 .0214.0006.0402.0018.0617.0298.5214.3955 7.8288-2.3304 11.3056-2.1794 2.7797-6.1819 6.4203-7.9026 7.9435-.4403.3898-1.1156.3055-1.4563-.1739l-4.6588-6.5543c-.3353-.4717-.2053-1.1316.2691-1.4631 1.5463-1.0802 4.6422-3.4878 5.4319-5.935.7955-2.4641.6779-5.5567.6662-5.8211-.0006-.0135-.001-.025-.0011-.0385z" fill="#000"/></svg>

<svg width="54" height="54" viewBox="0 0 54 54" fill="none" xmlns="http://www.w3.org/2000/svg">
<path d="M24.83 9.01019C24.8243 8.45395 25.2737 8 25.8299 8H33.966C34.5183 8 34.966 8.44772 34.966 9V24.9704C34.966 24.9918 34.9666 25.0106 34.9678 25.0321C34.9976 25.5535 35.3633 32.8609 32.6374 36.3377C30.458 39.1174 26.4555 42.758 24.7348 44.2812C24.2945 44.671 23.6192 44.5867 23.2785 44.1073L18.6197 37.553C18.2844 37.0813 18.4144 36.4214 18.8888 36.0899C20.4351 35.0097 23.531 32.6021 24.3207 30.1549C25.1162 27.6908 24.9986 24.5982 24.9869 24.3338C24.9863 24.3203 24.9859 24.3088 24.9858 24.2953L24.83 9.01019Z" fill="black"/>
</svg>
